X: 1
T: Quebecois
M: 4/4
L: 1/8
R: reel
K: Amaj
|:[EA]G AB cB AB|Aa ga (3faf e2|AG AB cB Ac|[GB]B [EB]B [GB]B [EB]B|
AG AB cB AB|Aa ga (3faf e2|GB ed cB AG|A2 a2:|
|:AB cd e2 dc|Bc de f2 ed|ce fg a2 gf|
ea gf ed cB|Aa ga fd BG|A2 a2:|
